X:749
T:Kelvingrove harmony
S:Memory
Z:Nigel Gatherer
M:4/4
L:1/8
K:G
G>A | BdAB BdcB | c2 ^c2 d2 G>A | BdAB BdcB | c2 B2 B2 ||
z2  | E2 ED D2 z2 | G2 c^c d2 G>A | BdAB BdcB | c2 B2 B2 |]
<end>
<start>
